X:84
T:Rattling Bog, The
R:song
Z:id:hn-song-84
M:2/4
L:1/8
Q:1/4=120
K:G
B2 B>A | GE E>E | DG GA | BA A>
A | B2 B>A | GE E>E | Dd dB | AG G ||
A | BB AG | BB AG | B2 d>B | BA A>
A | BB/B/ AG/G/ | BB/B/ AG/G/ | Bd dB | AG G2 ||
W:Chorus:
W:Oh, ro, the rattlin' bog, the bog down in the valley-o.
W:A rare bog, a rattlin' bog, the bog down in the valley-o.
W:
W:And in that bog there was a hole, a rare hole, a rattlin' hole
W:The hole in the bog, and the the bog down in the valley-o.
W:
W:Chorus
W:
W:And in that hole there was a tree, a rare tree, a rattlin' tree
W:The tree in the hole
W:and the hole in the bog, and the the bog down in the valley-o.
W:
W:Chorus
W:
W:And on that tree there was a limb [etc]
W:
W:And on that limb there was a branch [etc]
W:
W:And on that branch there was a twig [etc]
W:
W:And on that twig there was a nest [etc]
W:
W:And in that nest there was an egg [etc]
W:
W:And on that egg there was a bird [etc]
W:
W:And on that bird there was a feather [etc]
W:
W:And on that feather there was a spot [etc]
W:
W:And on that spot there was a flea [etc]
W:
W:And on that flea there was a hair [etc]
W:
W:And on that hair there was a germ, a rare germ a rattlin' germ,
W:The germ on the hair, and the hair on the flea,
W:and the flea on the spot, and the spot on the feather,
W:and the feather on the bird, and the bird on the egg,
W:and the egg in the nest, and the nest on the twig,
W:and the twig on the branch, and the branch on the limb,
W:and the limb on the tree, and the tree in the hole,
W:and the hole in the bog, and the the bog down in the valley-o.
W:
W:Chorus

